; generated by Slic3r 1.2.9 on 2016-03-20 at 17:08:06

; external perimeters extrusion width = 0.50mm
; perimeters extrusion width = 0.72mm
; infill extrusion width = 0.72mm
; solid infill extrusion width = 0.72mm
; top infill extrusion width = 0.72mm

M107
M104 S200 ; set temperature
G28 ; home all axes
G1 Z5 F5000 ; lift nozzle

M109 S200 ; wait for temperature to be reached
G21 ; set units to millimeters
G90 ; use absolute coordinates
M82 ; use absolute distances for extrusion
G92 E0
G1 Z0.500 F7800.000
G1 X92.150 Y93.154 F7800.000
G1 X93.912 Y91.615 E0.14774 F1079.034
G1 X96.087 Y90.754 E0.29548
G1 X97.500 Y90.607 E0.38516
G1 X102.500 Y90.607 E0.70089
G1 X104.806 Y91.004 E0.84863
G1 X106.846 Y92.150 E0.99637 F1079.034
G1 X108.385 Y93.912 E1.14411
G1 X109.246 Y96.087 E1.29185
G1 X109.393 Y97.500 E1.38153
G1 X109.393 Y102.500 E1.69726
G1 X108.996 Y104.806 E1.84500
G1 X107.850 Y106.846 E1.99274
G1 X106.088 Y108.385 E2.14049
G1 X103.913 Y109.246 E2.28823
G1 X102.500 Y109.393 E2.37791
G1 X97.500 Y109.393 E2.69363
G1 X95.194 Y108.996 E2.84138
G1 X93.154 Y107.850 E2.98912
G1 X91.615 Y106.088 E3.13686
G1 X90.754 Y103.913 E3.28460
G1 X90.607 Y102.500 E3.37428
G1 X90.607 Y97.500 E3.69001
G1 X91.004 Y95.194 E3.83775
G1 X92.113 Y93.220 E3.98075
G92 E0
G1 X101.107 Y101.107 F7800.000
G1 X98.893 Y101.107 E0.13984 F1079.034
G1 X98.893 Y98.893 E0.27968
G1 X101.107 Y98.893 E0.41953
G1 X101.107 Y101.032 E0.55463
G1 X102.000 Y102.000 F7800.000
G1 X98.000 Y102.000 E0.80721 F1079.034
G1 X98.000 Y98.000 E1.05980
G1 X102.000 Y98.000 E1.31238
G1 X102.000 Y101.925 E1.56023
G1 X101.567 Y101.750 F7800.000
G1 X100.558 Y99.861 F7800.000
G1 X100.139 Y99.442 E1.60152 F1079.034
G1 X99.442 Y100.139 E1.67026
G1 X99.861 Y100.558 E1.71155
G1 Z0.800 F7800.000
G1 X101.050 Y101.050 F7800.000
G1 X98.950 Y101.050 E1.76991 F600.000
G1 X98.950 Y98.950 E1.82827
G1 X101.050 Y98.950 E1.88662
G1 X101.050 Y100.975 E1.94290
G1 X101.705 Y101.705 F7800.000
G1 X98.295 Y101.705 E2.03762 F600.000
G1 X98.295 Y98.295 E2.13234
G1 X101.705 Y98.295 E2.22705
G1 X101.705 Y101.630 E2.31969
G1 X102.250 Y102.250 F7800.000
G1 X97.750 Y102.250 E2.40289 F600.000
G1 X97.750 Y97.750 E2.48608
G1 X102.250 Y97.750 E2.56928
G1 X102.250 Y102.175 E2.65109
G1 X101.817 Y102.000 F7800.000
G1 X100.335 Y100.653 F7800.000
G1 X100.653 Y100.335 E2.66442 F692.599
G1 X100.633 Y99.367 E2.69314
G1 X99.367 Y100.633 E2.74624
G1 X99.347 Y99.665 E2.77497
G1 X99.665 Y99.347 E2.78829
G1 Z1.100 F7800.000
G1 X101.050 Y101.050 F7800.000
G1 X98.950 Y101.050 E2.84665 F600.000
G1 X98.950 Y98.950 E2.90501
G1 X101.050 Y98.950 E2.96336
G1 X101.050 Y100.975 E3.01964
G1 X101.705 Y101.705 F7800.000
G1 X98.295 Y101.705 E3.11436 F600.000
G1 X98.295 Y98.295 E3.20908
G1 X101.705 Y98.295 E3.30380
G1 X101.705 Y101.630 E3.39643
G1 X102.250 Y102.250 F7800.000
G1 X97.750 Y102.250 E3.47963 F600.000
G1 X97.750 Y97.750 E3.56283
G1 X102.250 Y97.750 E3.64602
G1 X102.250 Y102.175 E3.72783
G1 X101.817 Y102.000 F7800.000
G1 X100.653 Y99.665 F7800.000
G1 X100.335 Y99.347 E3.74116 F692.599
G1 X99.367 Y99.367 E3.76988
G1 X100.633 Y100.633 E3.82298
G1 X99.665 Y100.653 E3.85171
G1 X99.347 Y100.335 E3.86503
M106 S255
G1 Z1.400 F7800.000
G1 X101.050 Y101.050 F7800.000
G1 X98.950 Y101.050 E3.92339 F600.000
G1 X98.950 Y98.950 E3.98175
G1 X101.050 Y98.950 E4.04010
G1 X101.050 Y100.975 E4.09638
G1 X101.705 Y101.705 F7800.000
G1 X98.295 Y101.705 E4.19110 F600.000
G1 X98.295 Y98.295 E4.28582
G1 X101.705 Y98.295 E4.38054
G1 X101.705 Y101.630 E4.47317
G1 X102.250 Y102.250 F7800.000
G1 X97.750 Y102.250 E4.55637 F600.000
G1 X97.750 Y97.750 E4.63957
G1 X102.250 Y97.750 E4.72276
G1 X102.250 Y102.175 E4.80457
G1 X101.817 Y102.000 F7800.000
G1 X100.335 Y100.653 F7800.000
G1 X100.653 Y100.335 E4.81790 F692.599
G1 X100.633 Y99.367 E4.84662
G1 X99.367 Y100.633 E4.89972
G1 X99.347 Y99.665 E4.92844
G1 X99.665 Y99.347 E4.94177
G1 Z1.700 F7800.000
G1 X101.050 Y101.050 F7800.000
G1 X98.950 Y101.050 E5.00012 F600.000
G1 X98.950 Y98.950 E5.05848
G1 X101.050 Y98.950 E5.11684
G1 X101.050 Y100.975 E5.17311
G1 X101.705 Y101.705 F7800.000
G1 X98.295 Y101.705 E5.26783 F600.000
G1 X98.295 Y98.295 E5.36255
G1 X101.705 Y98.295 E5.45727
G1 X101.705 Y101.630 E5.54991
G1 X102.250 Y102.250 F7800.000
G1 X97.750 Y102.250 E5.63310 F600.000
G1 X97.750 Y97.750 E5.71630
G1 X102.250 Y97.750 E5.79950
G1 X102.250 Y102.175 E5.88131
G1 X101.817 Y102.000 F7800.000
G1 X100.653 Y99.665 F7800.000
G1 X100.335 Y99.347 E5.89463 F692.599
G1 X99.367 Y99.367 E5.92336
G1 X100.633 Y100.633 E5.97645
G1 X99.665 Y100.653 E6.00518
G1 X99.347 Y100.335 E6.01850
G1 Z2.000 F7800.000
G1 X101.050 Y101.050 F7800.000
G1 X98.950 Y101.050 E6.07686 F600.000
G1 X98.950 Y98.950 E6.13522
G1 X101.050 Y98.950 E6.19358
G1 X101.050 Y100.975 E6.24985
G1 X101.705 Y101.705 F7800.000
G1 X98.295 Y101.705 E6.34457 F600.000
G1 X98.295 Y98.295 E6.43929
G1 X101.705 Y98.295 E6.53401
G1 X101.705 Y101.630 E6.62664
G1 X102.250 Y102.250 F7800.000
G1 X97.750 Y102.250 E6.70984 F600.000
G1 X97.750 Y97.750 E6.79304
G1 X102.250 Y97.750 E6.87623
G1 X102.250 Y102.175 E6.95805
G1 X101.817 Y102.000 F7800.000
G1 X100.335 Y100.653 F7800.000
G1 X100.653 Y100.335 E6.97137 F692.599
G1 X100.633 Y99.367 E7.00009
G1 X99.367 Y100.633 E7.05319
G1 X99.347 Y99.665 E7.08191
G1 X99.665 Y99.347 E7.09524
G1 Z2.300 F7800.000
G1 X101.050 Y101.050 F7800.000
G1 X98.950 Y101.050 E7.15360 F600.000
G1 X98.950 Y98.950 E7.21195
G1 X101.050 Y98.950 E7.27031
G1 X101.050 Y100.975 E7.32659
G1 X101.705 Y101.705 F7800.000
G1 X98.295 Y101.705 E7.42131 F600.000
G1 X98.295 Y98.295 E7.51602
G1 X101.705 Y98.295 E7.61074
G1 X101.705 Y101.630 E7.70338
G1 X102.250 Y102.250 F7800.000
G1 X97.750 Y102.250 E7.78658 F600.000
G1 X97.750 Y97.750 E7.86977
G1 X102.250 Y97.750 E7.95297
G1 X102.250 Y102.175 E8.03478
G1 X101.817 Y102.000 F7800.000
G1 X100.653 Y99.665 F7800.000
G1 X100.335 Y99.347 E8.04811 F692.599
G1 X99.367 Y99.367 E8.07683
G1 X100.633 Y100.633 E8.12993
G1 X99.665 Y100.653 E8.15865
G1 X99.347 Y100.335 E8.17197
G1 Z2.600 F7800.000
G1 X101.050 Y101.050 F7800.000
G1 X98.950 Y101.050 E8.23033 F600.000
G1 X98.950 Y98.950 E8.28869
G1 X101.050 Y98.950 E8.34705
G1 X101.050 Y100.975 E8.40332
G1 X101.705 Y101.705 F7800.000
G1 X98.295 Y101.705 E8.49804 F600.000
G1 X98.295 Y98.295 E8.59276
G1 X101.705 Y98.295 E8.68748
G1 X101.705 Y101.630 E8.78011
G1 X102.250 Y102.250 F7800.000
G1 X97.750 Y102.250 E8.86331 F600.000
G1 X97.750 Y97.750 E8.94651
G1 X102.250 Y97.750 E9.02971
G1 X102.250 Y102.175 E9.11152
G1 X101.817 Y102.000 F7800.000
G1 X100.335 Y100.653 F7800.000
G1 X100.653 Y100.335 E9.12484 F692.599
G1 X100.633 Y99.367 E9.15356
G1 X99.367 Y100.633 E9.20666
G1 X99.347 Y99.665 E9.23538
G1 X99.665 Y99.347 E9.24871
G1 Z2.900 F7800.000
G1 X101.050 Y101.050 F7800.000
G1 X98.950 Y101.050 E9.30707 F600.000
G1 X98.950 Y98.950 E9.36543
G1 X101.050 Y98.950 E9.42378
G1 X101.050 Y100.975 E9.48006
G1 X101.705 Y101.705 F7800.000
G1 X98.295 Y101.705 E9.57478 F600.000
G1 X98.295 Y98.295 E9.66950
G1 X101.705 Y98.295 E9.76421
G1 X101.705 Y101.630 E9.85685
G1 X102.250 Y102.250 F7800.000
G1 X97.750 Y102.250 E9.94005 F600.000
G1 X97.750 Y97.750 E10.02324
G1 X102.250 Y97.750 E10.10644
G1 X102.250 Y102.175 E10.18825
G1 X101.817 Y102.000 F7800.000
G1 X100.653 Y99.665 F7800.000
G1 X100.335 Y99.347 E10.20158 F692.599
G1 X99.367 Y99.367 E10.23030
G1 X100.633 Y100.633 E10.28340
G1 X99.665 Y100.653 E10.31212
G1 X99.347 Y100.335 E10.32544
G1 Z3.200 F7800.000
G1 X101.050 Y101.050 F7800.000
G1 X98.950 Y101.050 E10.38380 F600.000
G1 X98.950 Y98.950 E10.44216
G1 X101.050 Y98.950 E10.50052
G1 X101.050 Y100.975 E10.55679
G1 X101.705 Y101.705 F7800.000
G1 X98.295 Y101.705 E10.65151 F600.000
G1 X98.295 Y98.295 E10.74623
G1 X101.705 Y98.295 E10.84095
G1 X101.705 Y101.630 E10.93359
G1 X102.250 Y102.250 F7800.000
G1 X97.750 Y102.250 E11.01678 F600.000
G1 X97.750 Y97.750 E11.09998
G1 X102.250 Y97.750 E11.18318
G1 X102.250 Y102.175 E11.26499
G1 X101.817 Y102.000 F7800.000
G1 X100.335 Y100.653 F7800.000
G1 X100.653 Y100.335 E11.27831 F692.599
G1 X100.633 Y99.367 E11.30704
G1 X99.367 Y100.633 E11.36013
G1 X99.347 Y99.665 E11.38886
G1 X99.665 Y99.347 E11.40218
G1 Z3.500 F7800.000
G1 X101.050 Y101.050 F7800.000
G1 X98.950 Y101.050 E11.46054 F600.000
G1 X98.950 Y98.950 E11.51890
G1 X101.050 Y98.950 E11.57725
G1 X101.050 Y100.975 E11.63353
G1 X101.705 Y101.705 F7800.000
G1 X98.295 Y101.705 E11.72825 F600.000
G1 X98.295 Y98.295 E11.82297
G1 X101.705 Y98.295 E11.91769
G1 X101.705 Y101.630 E12.01032
G1 X102.250 Y102.250 F7800.000
G1 X97.750 Y102.250 E12.09352 F600.000
G1 X97.750 Y97.750 E12.17672
G1 X102.250 Y97.750 E12.25991
G1 X102.250 Y102.175 E12.34172
G1 X101.817 Y102.000 F7800.000
G1 X100.653 Y99.665 F7800.000
G1 X100.335 Y99.347 E12.35505 F692.599
G1 X99.367 Y99.367 E12.38377
G1 X100.633 Y100.633 E12.43687
G1 X99.665 Y100.653 E12.46559
G1 X99.347 Y100.335 E12.47892
G1 Z3.800 F7800.000
G1 X101.050 Y101.050 F7800.000
G1 X98.950 Y101.050 E12.53727 F600.000
G1 X98.950 Y98.950 E12.59563
G1 X101.050 Y98.950 E12.65399
G1 X101.050 Y100.975 E12.71026
G1 X101.705 Y101.705 F7800.000
G1 X98.295 Y101.705 E12.80498 F600.000
G1 X98.295 Y98.295 E12.89970
G1 X101.705 Y98.295 E12.99442
G1 X101.705 Y101.630 E13.08706
G1 X102.250 Y102.250 F7800.000
G1 X97.750 Y102.250 E13.17025 F600.000
G1 X97.750 Y97.750 E13.25345
G1 X102.250 Y97.750 E13.33665
G1 X102.250 Y102.175 E13.41846
G1 X101.817 Y102.000 F7800.000
G1 X100.335 Y100.653 F7800.000
G1 X100.653 Y100.335 E13.43178 F692.599
G1 X100.633 Y99.367 E13.46051
G1 X99.367 Y100.633 E13.51360
G1 X99.347 Y99.665 E13.54233
G1 X99.665 Y99.347 E13.55565
G1 Z4.100 F7800.000
G1 X101.050 Y101.050 F7800.000
G1 X98.950 Y101.050 E13.61401 F600.000
G1 X98.950 Y98.950 E13.67237
G1 X101.050 Y98.950 E13.73073
G1 X101.050 Y100.975 E13.78700
G1 X101.705 Y101.705 F7800.000
G1 X98.295 Y101.705 E13.88172 F600.000
G1 X98.295 Y98.295 E13.97644
G1 X101.705 Y98.295 E14.07116
G1 X101.705 Y101.630 E14.16379
G1 X102.250 Y102.250 F7800.000
G1 X97.750 Y102.250 E14.24699 F600.000
G1 X97.750 Y97.750 E14.33019
G1 X102.250 Y97.750 E14.41338
G1 X102.250 Y102.175 E14.49520
G1 X101.817 Y102.000 F7800.000
G1 X100.653 Y99.665 F7800.000
G1 X100.335 Y99.347 E14.50852 F692.599
G1 X99.367 Y99.367 E14.53724
G1 X100.633 Y100.633 E14.59034
G1 X99.665 Y100.653 E14.61906
G1 X99.347 Y100.335 E14.63239
G1 Z4.400 F7800.000
G1 X101.050 Y101.050 F7800.000
G1 X98.950 Y101.050 E14.69075 F600.000
G1 X98.950 Y98.950 E14.74910
G1 X101.050 Y98.950 E14.80746
G1 X101.050 Y100.975 E14.86374
G1 X101.705 Y101.705 F7800.000
G1 X98.295 Y101.705 E14.95846 F600.000
G1 X98.295 Y98.295 E15.05317
G1 X101.705 Y98.295 E15.14789
G1 X101.705 Y101.630 E15.24053
G1 X102.250 Y102.250 F7800.000
G1 X97.750 Y102.250 E15.32373 F600.000
G1 X97.750 Y97.750 E15.40692
G1 X102.250 Y97.750 E15.49012
G1 X102.250 Y102.175 E15.57193
G1 X101.817 Y102.000 F7800.000
G1 X100.335 Y100.653 F7800.000
G1 X100.653 Y100.335 E15.58526 F692.599
G1 X100.633 Y99.367 E15.61398
G1 X99.367 Y100.633 E15.66708
G1 X99.347 Y99.665 E15.69580
G1 X99.665 Y99.347 E15.70913
G1 Z4.700 F7800.000
G1 X101.050 Y101.050 F7800.000
G1 X98.950 Y101.050 E15.76749 F600.000
G1 X98.950 Y98.950 E15.82584
G1 X101.050 Y98.950 E15.88420
G1 X101.050 Y100.975 E15.94048
G1 X101.705 Y101.705 F7800.000
G1 X98.295 Y101.705 E16.03520 F600.000
G1 X98.295 Y98.295 E16.12991
G1 X101.705 Y98.295 E16.22463
G1 X101.705 Y101.630 E16.31727
G1 X102.250 Y102.250 F7800.000
G1 X97.750 Y102.250 E16.40047 F600.000
G1 X97.750 Y97.750 E16.48366
G1 X102.250 Y97.750 E16.56686
G1 X102.250 Y102.175 E16.64867
G1 X101.817 Y102.000 F7800.000
G1 X100.653 Y99.665 F7800.000
G1 X100.335 Y99.347 E16.66200 F692.599
G1 X99.367 Y99.367 E16.69072
G1 X100.633 Y100.633 E16.74382
G1 X99.665 Y100.653 E16.77254
G1 X99.347 Y100.335 E16.78587
G1 Z5.000 F7800.000
G1 X101.050 Y101.050 F7800.000
G1 X98.950 Y101.050 E16.84423 F600.000
G1 X98.950 Y98.950 E16.90258
G1 X101.050 Y98.950 E16.96094
G1 X101.050 Y100.975 E17.01722
G1 X101.705 Y101.705 F7800.000
G1 X98.295 Y101.705 E17.11194 F600.000
G1 X98.295 Y98.295 E17.20666
G1 X101.705 Y98.295 E17.30137
G1 X101.705 Y101.630 E17.39401
G1 X102.250 Y102.250 F7800.000
G1 X97.750 Y102.250 E17.47721 F600.000
G1 X97.750 Y97.750 E17.56040
G1 X102.250 Y97.750 E17.64360
G1 X102.250 Y102.175 E17.72541
G1 X101.817 Y102.000 F7800.000
G92 E0
G1 X100.335 Y100.653 F7800.000
G1 X100.653 Y100.335 E0.01332 F600.000
G1 X100.633 Y99.367 E0.04205
G1 X99.367 Y100.633 E0.09515
G1 X99.347 Y99.665 E0.12387
G1 X99.665 Y99.347 E0.13720
G92 E0
M107
M104 S0 ; turn off temperature
G28 X0  ; home X axis
M84     ; disable motors

; filament used = 21.8mm (0.2cm3)

; avoid_crossing_perimeters = 1
; bed_shape = 0x0,200x0,200x200,0x200
; bed_temperature = 0
; before_layer_gcode = 
; bridge_acceleration = 0
; bridge_fan_speed = 100
; brim_width = 0
; complete_objects = 0
; cooling = 1
; default_acceleration = 0
; disable_fan_first_layers = 3
; duplicate_distance = 6
; end_gcode = M104 S0 ; turn off temperature\nG28 X0  ; home X axis\nM84     ; disable motors\n
; extruder_clearance_height = 20
; extruder_clearance_radius = 20
; extruder_offset = 0x0
; extrusion_axis = E
; extrusion_multiplier = 1
; fan_always_on = 0
; fan_below_layer_time = 60
; filament_colour = #FFFFFF
; filament_diameter = 3
; first_layer_acceleration = 0
; first_layer_bed_temperature = 0
; first_layer_extrusion_width = 200%
; first_layer_speed = 30
; first_layer_temperature = 200
; gcode_arcs = 0
; gcode_comments = 0
; gcode_flavor = reprap
; infill_acceleration = 0
; infill_first = 0
; layer_gcode = 
; max_fan_speed = 100
; max_print_speed = 80
; max_volumetric_speed = 0
; min_fan_speed = 35
; min_print_speed = 10
; min_skirt_length = 0
; notes = 
; nozzle_diameter = 0.5
; only_retract_when_crossing_perimeters = 1
; ooze_prevention = 0
; output_filename_format = [input_filename_base].gcode
; perimeter_acceleration = 0
; post_process = 
; pressure_advance = 0
; resolution = 0
; retract_before_travel = 2
; retract_layer_change = 0
; retract_length = 0
; retract_length_toolchange = 10
; retract_lift = 0
; retract_restart_extra = 0
; retract_restart_extra_toolchange = 0
; retract_speed = 40
; skirt_distance = 6
; skirt_height = 1
; skirts = 1
; slowdown_below_layer_time = 5
; spiral_vase = 0
; standby_temperature_delta = -5
; start_gcode = G28 ; home all axes\nG1 Z5 F5000 ; lift nozzle\n
; temperature = 200
; threads = 2
; toolchange_gcode = 
; travel_speed = 130
; use_firmware_retraction = 0
; use_relative_e_distances = 0
; use_volumetric_e = 0
; vibration_limit = 0
; wipe = 0
; z_offset = 0
; dont_support_bridges = 1
; extrusion_width = 0
; first_layer_height = 0.5
; infill_only_where_needed = 0
; interface_shells = 0
; layer_height = 0.3
; raft_layers = 0
; seam_position = aligned
; support_material = 0
; support_material_angle = 0
; support_material_contact_distance = 0.2
; support_material_enforce_layers = 0
; support_material_extruder = 1
; support_material_extrusion_width = 0
; support_material_interface_extruder = 1
; support_material_interface_layers = 3
; support_material_interface_spacing = 0
; support_material_interface_speed = 100%
; support_material_pattern = pillars
; support_material_spacing = 2.5
; support_material_speed = 60
; support_material_threshold = 0
; xy_size_compensation = 0
; bottom_solid_layers = 3
; bridge_flow_ratio = 1
; bridge_speed = 60
; external_fill_pattern = rectilinear
; external_perimeter_extrusion_width = 0
; external_perimeter_speed = 50%
; external_perimeters_first = 0
; extra_perimeters = 1
; fill_angle = 45
; fill_density = 20%
; fill_pattern = honeycomb
; gap_fill_speed = 20
; infill_every_layers = 10
; infill_extruder = 1
; infill_extrusion_width = 0
; infill_overlap = 15%
; infill_speed = 80
; overhangs = 1
; perimeter_extruder = 1
; perimeter_extrusion_width = 0
; perimeter_speed = 60
; perimeters = 3
; small_perimeter_speed = 15
; solid_infill_below_area = 70
; solid_infill_every_layers = 0
; solid_infill_extruder = 1
; solid_infill_extrusion_width = 0
; solid_infill_speed = 20
; thin_walls = 1
; top_infill_extrusion_width = 0
